resources/haticons/SVG/settings_ethernet.svg

<!-- Generated by IcoMoon.io -->
<svg version="1.1" xmlns="http://www.w3.org/2000/svg" width="24" height="24" viewBox="0 0 24 24">
<title>settings_ethernet</title>
<path d="M17.766 5.484l5.438 6.516-5.438 6.516-1.547-1.266 4.359-5.25-4.359-5.25zM11.016 12.984v-1.969h1.969v1.969h-1.969zM17.016 11.016v1.969h-2.016v-1.969h2.016zM6.984 12.984v-1.969h2.016v1.969h-2.016zM7.781 6.75l-4.359 5.25 4.359 5.25-1.547 1.266-5.438-6.516 5.438-6.516z"></path>
</svg>

<svg xmlns="http://www.w3.org/2000/svg" width="24" height="24"><path d="M17.766 5.484L23.204 12l-5.438 6.516-1.547-1.266L20.578 12l-4.359-5.25zm-6.75 7.5v-1.969h1.969v1.969h-1.969zm6-1.968v1.969H15v-1.969h2.016zM6.984 12.984v-1.969H9v1.969H6.984zm.797-6.234L3.422 12l4.359 5.25-1.547 1.266L.796 12l5.438-6.516z"/></svg>
